X:1     %Music
T:O Sally My Dear
B:Folk Songs of Somerset (3rd Series), 1906
Z:Cecil Sharp
S:Jack Barnard, Bridgewater
M:3/4     %Meter
L:1/8     %
K:F
(AG) |F2 E2 D2 |A4 A G |F2 F2 A2 | c2 A2
w:O_ Sal-ly, my dear, but I wish I could  woo you 
(AG) |F2 E2 D2 |A4 A G |F2 F2 A2 | c2 A2 
w:O_ Sal-ly, my dear, but I wish I could woo you.
c2 |d2 e2 d2 |c4 A F |G2 A2 G2 | F2 D2 
w: She laugh'd and re-plied: And would woo-ing un-do you?
C2 |D3 E F G |A2 A2 G2 |F2 D F E C | D4  |]
w:Sing fal the did-dle i do, Sing whack fol the did-dle day 